X: 36679
T: She Hasn't The Thing She Thought She Had
R: slide
M: 12/8
K: Dmajor
M:6/8
|:FGA D2 d|c2 B A2 G|FGA D2 F|E3 A2 G|
FGA D2 d|c2 B A2 G|FGA B2 c|d3:|
|:fed f2 c|dcB A3|fed e2 f|g3 f2 e|
fed e2 c|dcB A2 G|FGA B2 c|d3:|

